source/img/logo.svg

<svg width="84" height="17" viewBox="0 0 84 17" fill="none" xmlns="http://www.w3.org/2000/svg">
<path fill-rule="evenodd" clip-rule="evenodd" d="M48.9438 5.15768C48.9438 2.45639 50.618 0.925659 53.4382 0.925659C56.236 0.925659 57.8315 2.51267 57.8315 5.23647V12.2035C57.7641 15.3663 56.2697 16.9646 53.3371 16.9533C50.4045 16.942 48.9438 15.3213 48.9438 12.1473V5.15768ZM54.6007 13.3663C54.6545 13.1904 54.6719 13.0054 54.6517 12.8226V4.94383C54.6684 4.76599 54.6478 4.58662 54.5913 4.4172C54.5348 4.24778 54.4436 4.09205 54.3236 3.95997C54.2035 3.82789 54.0573 3.72237 53.8942 3.65017C53.7311 3.57797 53.5547 3.54067 53.3764 3.54067C53.1981 3.54067 53.0218 3.57797 52.8587 3.65017C52.6956 3.72237 52.5493 3.82789 52.4293 3.95997C52.3092 4.09205 52.218 4.24778 52.1615 4.4172C52.105 4.58662 52.0845 4.76599 52.1011 4.94383V12.8226C52.0775 13.0069 52.0927 13.1941 52.1459 13.3722C52.199 13.5502 52.2888 13.7151 52.4095 13.8562C52.5303 13.9973 52.6792 14.1114 52.8467 14.1912C53.0142 14.2711 53.1966 14.3148 53.382 14.3195C53.5654 14.3099 53.7449 14.2629 53.9094 14.1813C54.074 14.0998 54.2202 13.9854 54.3391 13.8453C54.4579 13.7051 54.547 13.5421 54.6007 13.3663Z" fill="#252525"/>
<path d="M67.9326 1.27453H59.9438V3.98707H62.5955V16.5818H65.4607V3.98707H67.9326V1.27453Z" fill="#252525"/>
<path d="M69.5955 1.27453H77.5731V3.98707H75.1011V16.5818H72.236V3.98707H69.5955V1.27453Z" fill="#252525"/>
<path d="M79.8989 1.27453H83.0337V16.5931H79.8989V1.27453Z" fill="#252525"/>
<path d="M39.5281 1.27453V16.5818H46.6517V13.6892H42.6741V1.27453H39.5281Z" fill="#252525"/>
<path fill-rule="evenodd" clip-rule="evenodd" d="M30.5394 1.27453H34.3821L37.427 16.5818H34.3596L33.854 13.4641H31.0899L30.663 16.5818H27.5618L30.5394 1.27453ZM31.3933 10.7741V10.8979H33.382L32.4719 3.94205V3.84075H32.2809L31.3933 10.7741Z" fill="#252525"/>
<path d="M19.5843 1.27453H16.4495V13.4303C16.4241 13.6619 16.3144 13.8759 16.1412 14.0313C15.9681 14.1868 15.7438 14.2728 15.5113 14.2728C15.2787 14.2728 15.0544 14.1868 14.8813 14.0313C14.7081 13.8759 14.5984 13.6619 14.5731 13.4303V11.5732H11.7079V13.4078C11.7079 15.5688 13.2247 16.9082 15.6517 16.9082C16.1452 16.9566 16.6433 16.9018 17.1146 16.7474C17.5859 16.593 18.0201 16.3423 18.3897 16.0112C18.7593 15.6801 19.0563 15.2757 19.2619 14.8237C19.4675 14.3718 19.5773 13.882 19.5843 13.3853V1.27453Z" fill="#252525"/>
<path fill-rule="evenodd" clip-rule="evenodd" d="M2.98876 1.27453H6.83146L9.87641 16.5818H6.79775L6.29214 13.4641H3.53933L3.11236 16.5818H0L2.98876 1.27453ZM3.8427 10.7741V10.8979H5.86517L4.94382 3.94205V3.84075H4.73034L3.8427 10.7741Z" fill="#252525"/>
</svg>

<svg width="84" height="17" fill="none" xmlns="http://www.w3.org/2000/svg"><path fill-rule="evenodd" clip-rule="evenodd" d="M48.944 5.158c0-2.702 1.674-4.232 4.494-4.232 2.798 0 4.393 1.587 4.393 4.31v6.968c-.067 3.162-1.561 4.76-4.494 4.75-2.933-.012-4.393-1.633-4.393-4.807v-6.99Zm5.657 8.208c.053-.176.07-.36.05-.543v-7.88a1.285 1.285 0 0 0-1.275-1.402 1.279 1.279 0 0 0-1.215.876c-.056.17-.077.349-.06.527v7.879a1.33 1.33 0 0 0 1.281 1.496 1.345 1.345 0 0 0 1.219-.953Z" fill="#252525"/><path d="M67.933 1.275h-7.99v2.712h2.653v12.595h2.865V3.987h2.472V1.275ZM69.596 1.275h7.977v2.712h-2.472v12.595h-2.865V3.987h-2.64V1.275ZM79.899 1.275h3.135v15.318h-3.135V1.275ZM39.528 1.275v15.307h7.124v-2.893h-3.978V1.275h-3.146Z" fill="#252525"/><path fill-rule="evenodd" clip-rule="evenodd" d="M30.54 1.275h3.842l3.045 15.307H34.36l-.506-3.118H31.09l-.427 3.118h-3.101l2.977-15.307Zm.853 9.5v.123h1.989l-.91-6.956v-.101h-.191l-.888 6.933Z" fill="#252525"/><path d="M19.584 1.275H16.45V13.43a.946.946 0 0 1-.939.843.943.943 0 0 1-.938-.843v-1.857h-2.865v1.835c0 2.16 1.517 3.5 3.944 3.5a3.577 3.577 0 0 0 3.61-2.084c.206-.452.315-.942.322-1.439V1.275Z" fill="#252525"/><path fill-rule="evenodd" clip-rule="evenodd" d="M2.989 1.275H6.83l3.045 15.307H6.798l-.506-3.118H3.54l-.427 3.118H0L2.989 1.275Zm.854 9.5v.123h2.022l-.921-6.956v-.101H4.73l-.887 6.933Z" fill="#252525"/></svg>
